src/components/content/Icon/distinctive/globe.svg

<svg width="100" height="100" viewBox="0 0 100 100" fill="none" xmlns="http://www.w3.org/2000/svg">
<path d="M80.098 38.7604C77.0959 30.7208 71.1428 24.3323 63.3355 20.7698C55.5282 17.2083 46.8001 16.9 38.7615 19.9021C30.7219 22.9042 24.3334 28.8573 20.7709 36.6646C17.2094 44.4719 16.9011 53.199 19.9032 61.2385C22.9053 69.2781 28.8584 75.6667 36.6657 79.2292C40.9188 81.1698 45.4459 82.1448 49.9855 82.1448C53.7782 82.1448 57.5813 81.4646 61.2407 80.0979C69.2803 77.0958 75.6688 71.1427 79.2313 63.3354C82.7928 55.5281 83.1011 46.801 80.099 38.7615L80.098 38.7604ZM35.9209 77.8542C33.8959 75.9646 32.998 71.6031 33.4428 65.5479C33.9292 58.9208 35.9376 51.201 38.8136 44.8969C41.6896 38.5927 46.2042 32.0167 50.8896 27.3052C55.1719 23 59.0532 20.8187 61.8084 21.1104C61.2917 21.4604 60.6928 22.026 59.9969 22.8198C58.7251 24.2708 57.1896 26.4115 55.4313 29.1833C52.0334 34.5417 48.273 41.5344 45.374 47.8906C42.4751 54.2458 39.6573 61.6698 37.8376 67.7479C36.8959 70.8917 36.2865 73.4552 36.024 75.3667C35.8803 76.4125 35.8448 77.2354 35.9198 77.8552L35.9209 77.8542ZM59.5053 20.5937C56.8876 21.2771 53.7678 23.376 50.373 26.7906C45.6292 31.5604 41.0594 38.2156 38.1501 44.5938C35.2396 50.9719 33.2084 58.7854 32.7157 65.4948C32.3626 70.2969 32.8219 74.0292 34.0219 76.4542C33.1032 75.5021 32.3001 74.326 31.6198 72.9323C30.3948 70.4219 29.5917 67.1948 29.298 63.601C28.7178 56.5021 30.0834 48.5104 32.9521 42.2229C35.8209 35.9354 40.9605 29.6656 46.7021 25.451C49.6094 23.3167 52.5719 21.8083 55.2709 21.0885C56.7698 20.6885 58.1834 20.525 59.5042 20.5948L59.5053 20.5937ZM55.0844 20.3833C52.2584 21.1375 49.2938 22.6448 46.2719 24.8625C40.4344 29.1479 35.2073 35.524 32.2896 41.9198C29.3719 48.3156 27.9823 56.4427 28.5719 63.6604C28.8771 67.3969 29.6823 70.624 30.9657 73.2521C31.2969 73.9302 31.6563 74.5573 32.0428 75.1385C31.073 74.1812 30.1771 73.0917 29.3626 71.8708C27.4844 69.0573 26.0573 65.5417 25.2344 61.7031C23.6126 54.1385 24.3532 45.8771 27.2146 39.6052C30.0761 33.3323 35.8303 27.3594 42.6063 23.625C46.0448 21.7302 49.6355 20.5042 52.9917 20.0792C54.448 19.8948 55.8573 19.8573 57.2157 19.9615C56.524 20.05 55.8136 20.1896 55.0855 20.3844L55.0844 20.3833ZM64.0792 22.1458C66.1042 24.0354 67.0021 28.3969 66.5574 34.4521C66.0709 41.0792 64.0626 48.799 61.1865 55.1031C58.3105 61.4073 53.7959 67.9833 49.1105 72.6948C44.8282 77 40.9459 79.1812 38.1917 78.8896C38.7094 78.5396 39.3073 77.974 40.0032 77.1802C41.2751 75.7292 42.8105 73.5885 44.5688 70.8167C47.9667 65.4583 51.7271 58.4656 54.6261 52.1094C57.5251 45.7542 60.3428 38.3302 62.1626 32.2521C63.1042 29.1083 63.7136 26.5448 63.9761 24.6333C64.1198 23.5875 64.1553 22.7646 64.0803 22.1448L64.0792 22.1458ZM40.498 79.4062C43.1146 78.7219 46.2334 76.6219 49.6271 73.2094C54.3709 68.4396 58.9407 61.7844 61.8501 55.4062C64.7605 49.0281 66.7917 41.2146 67.2844 34.5052C67.6376 29.7031 67.1782 25.9708 65.9782 23.5458C66.8969 24.4979 67.7001 25.674 68.3803 27.0677C69.6053 29.5781 70.4084 32.8052 70.7021 36.399C71.2823 43.4979 69.9167 51.4896 67.048 57.7771C64.1792 64.0646 59.0396 70.3344 53.298 74.549C50.3907 76.6833 47.4282 78.1917 44.7292 78.9115C43.2323 79.3104 41.8188 79.475 40.499 79.4052L40.498 79.4062ZM44.9157 79.6167C47.7417 78.8625 50.7063 77.3552 53.7282 75.1375C59.5657 70.8521 64.7928 64.476 67.7105 58.0802C70.6282 51.6844 72.0178 43.5573 71.4282 36.3396C71.123 32.6031 70.3178 29.376 69.0344 26.7479C68.7032 26.0698 68.3438 25.4427 67.9574 24.8625C68.9271 25.8198 69.823 26.9083 70.6376 28.1302C72.5157 30.9437 73.9428 34.4594 74.7657 38.2979C76.3876 45.8625 75.6469 54.124 72.7855 60.3958C69.924 66.6687 64.1698 72.6427 57.3938 76.376C53.9553 78.2708 50.3646 79.4969 47.0084 79.9219C45.5521 80.1062 44.1438 80.1437 42.7855 80.0396C43.4771 79.951 44.1865 79.8115 44.9146 79.6167H44.9157ZM61.4636 32.0437C59.6532 38.0927 56.849 45.4802 53.9626 51.8073C51.0761 58.1344 47.3344 65.0948 43.9521 70.426C39.8448 76.9021 37.7751 78.5896 37.0917 78.5896C37.0438 78.5896 37.0021 78.5812 36.9678 78.5656C36.4428 78.326 36.1823 75.8219 38.5365 67.9562C40.3469 61.9073 43.1511 54.5198 46.0376 48.1927C48.924 41.8656 52.6657 34.9052 56.0469 29.574C60.4448 22.6406 62.5053 21.1948 63.0313 21.4344C63.5563 21.674 63.8167 24.1781 61.4626 32.0448L61.4636 32.0437ZM20.5855 60.9844C17.6511 53.1271 17.9532 44.5979 21.4344 36.9677C24.9157 29.3375 31.1594 23.5198 39.0167 20.5854C44.5407 18.5229 50.3959 18.0615 56.0376 19.1771C55.0157 19.1615 53.9698 19.2187 52.899 19.3542C49.4042 19.7979 45.8219 21.0187 42.2542 22.9854C35.3459 26.7917 29.4751 32.8917 26.5511 39.301C23.6271 45.7115 22.8678 54.1427 24.5209 61.8552C25.3751 65.8385 26.8001 69.3448 28.7563 72.275C29.3553 73.1729 29.998 74 30.6792 74.7615C26.1386 71.2323 22.649 66.5073 20.5865 60.9833L20.5855 60.9844ZM78.5657 63.0323C75.0844 70.6625 68.8407 76.4802 60.9834 79.4146C57.4063 80.75 53.6917 81.4156 49.9844 81.4156C47.9688 81.4156 45.9563 81.2167 43.9698 80.824C44.073 80.825 44.1751 80.8281 44.2792 80.8281C45.2001 80.8281 46.1417 80.7677 47.1021 80.6458C50.548 80.2083 54.2292 78.9531 57.7469 77.0146C64.6553 73.2083 70.5261 67.1094 73.4501 60.699C76.374 54.2885 77.1334 45.8573 75.4803 38.1448C74.6261 34.1615 73.2011 30.6552 71.2449 27.725C70.6635 26.8518 70.0209 26.0209 69.3219 25.2385C73.8626 28.7677 77.3521 33.4927 79.4146 39.0167C82.349 46.874 82.0469 55.4031 78.5657 63.0333V63.0323Z" fill="#0B301A"/>
</svg>

<svg xmlns="http://www.w3.org/2000/svg" width="100" height="100" fill="none" viewBox="0 0 100 100"><path fill="#0b301a" d="M80.098 38.76c-3.002-8.04-8.955-14.428-16.762-17.99S46.8 16.9 38.762 19.902c-8.04 3.002-14.429 8.955-17.991 16.763-3.562 7.807-3.87 16.534-.868 24.574s8.955 14.428 16.763 17.99a32 32 0 0 0 13.32 2.916c3.792 0 7.595-.68 11.255-2.047 8.04-3.002 14.428-8.955 17.99-16.763 3.562-7.807 3.87-16.534.868-24.574zM35.921 77.854c-2.025-1.89-2.923-6.25-2.478-12.306.486-6.627 2.495-14.347 5.37-20.651 2.877-6.304 7.391-12.88 12.077-17.592C55.172 23 59.053 20.82 61.808 21.11c-.516.35-1.115.916-1.811 1.71-1.272 1.45-2.807 3.592-4.566 6.363-3.398 5.359-7.158 12.351-10.057 18.708-2.899 6.355-5.717 13.779-7.536 19.857-.942 3.144-1.552 5.707-1.814 7.619-.144 1.045-.18 1.868-.104 2.488m23.584-57.26c-2.617.683-5.737 2.782-9.132 6.197-4.744 4.77-9.314 11.425-12.223 17.803s-4.942 14.191-5.434 20.9c-.353 4.803.106 8.535 1.306 10.96q-1.38-1.43-2.402-3.522c-1.225-2.51-2.028-5.737-2.322-9.331-.58-7.099.785-15.09 3.654-21.378s8.009-12.557 13.75-16.772c2.907-2.134 5.87-3.643 8.569-4.363q2.25-.599 4.233-.493zm-4.42-.21c-2.827.753-5.791 2.26-8.813 4.479-5.838 4.285-11.065 10.661-13.982 17.057-2.918 6.396-4.308 14.523-3.718 21.74.305 3.737 1.11 6.964 2.394 9.592q.496 1.016 1.077 1.886a20.8 20.8 0 0 1-2.68-3.267c-1.879-2.814-3.306-6.33-4.129-10.168-1.621-7.565-.88-15.826 1.98-22.098 2.862-6.273 8.616-12.246 15.392-15.98 3.439-1.895 7.03-3.12 10.386-3.546a21 21 0 0 1 4.224-.117 16 16 0 0 0-2.13.422zm8.994 1.762c2.025 1.89 2.923 6.25 2.478 12.306-.486 6.627-2.494 14.347-5.37 20.651s-7.391 12.88-12.076 17.592C44.828 77 40.946 79.18 38.19 78.89c.518-.35 1.116-.916 1.812-1.71 1.272-1.45 2.807-3.592 4.566-6.363 3.398-5.359 7.158-12.351 10.057-18.708 2.9-6.355 5.717-13.779 7.537-19.857.941-3.144 1.55-5.707 1.813-7.619.144-1.046.18-1.868.104-2.488m-23.581 57.26c2.617-.684 5.735-2.784 9.13-6.197 4.743-4.77 9.313-11.425 12.222-17.803 2.91-6.378 4.942-14.191 5.434-20.9.354-4.803-.106-8.535-1.306-10.96q1.38 1.43 2.402 3.522c1.225 2.51 2.028 5.737 2.322 9.331.58 7.099-.785 15.09-3.654 21.378S59.04 70.334 53.298 74.55c-2.907 2.134-5.87 3.643-8.569 4.362-1.497.4-2.91.564-4.23.494zm4.418.21c2.826-.754 5.79-2.26 8.812-4.478 5.838-4.286 11.065-10.662 13.982-17.058 2.918-6.396 4.308-14.523 3.718-21.74-.305-3.737-1.11-6.964-2.394-9.592a16 16 0 0 0-1.077-1.886 20.7 20.7 0 0 1 2.68 3.268c1.879 2.814 3.306 6.33 4.129 10.168 1.622 7.564.88 15.826-1.98 22.098-2.862 6.273-8.616 12.247-15.392 15.98-3.439 1.895-7.03 3.12-10.386 3.546a21 21 0 0 1-4.223.118 16 16 0 0 0 2.13-.423m16.548-47.572c-1.81 6.049-4.615 13.436-7.501 19.763s-6.629 13.288-10.01 18.619c-4.108 6.476-6.178 8.164-6.861 8.164a.3.3 0 0 1-.124-.024c-.525-.24-.786-2.744 1.568-10.61 1.81-6.049 4.615-13.436 7.502-19.763s6.628-13.288 10.009-18.619c4.398-6.933 6.458-8.38 6.984-8.14s.786 2.744-1.568 10.61m-40.878 28.94c-2.935-7.857-2.633-16.386.848-24.016 3.482-7.63 9.725-13.448 17.583-16.383 5.524-2.062 11.379-2.524 17.02-1.408a22 22 0 0 0-3.138.177c-3.495.444-7.077 1.665-10.645 3.631-6.908 3.807-12.779 9.907-15.703 16.316-2.924 6.41-3.683 14.842-2.03 22.554.854 3.983 2.28 7.49 4.235 10.42a22 22 0 0 0 1.923 2.486c-4.54-3.529-8.03-8.254-10.092-13.778zm57.98 2.048c-3.482 7.63-9.725 13.448-17.583 16.383a31.4 31.4 0 0 1-10.999 2c-2.015 0-4.028-.198-6.014-.591q.154.003.31.004 1.381 0 2.822-.182c3.446-.438 7.127-1.693 10.645-3.631 6.908-3.807 12.78-9.906 15.703-16.316s3.683-14.842 2.03-22.554c-.854-3.984-2.279-7.49-4.235-10.42a22 22 0 0 0-1.923-2.487c4.54 3.53 8.03 8.255 10.093 13.779 2.934 7.857 2.632 16.386-.85 24.016"/></svg>
